symbols/web/camera_outdoor/materialsymbolsrounded/camera_outdoor_wght700gradN25_20px.svg

<svg xmlns="http://www.w3.org/2000/svg" height="20" width="20"><path d="M11.542 14.583q-.334 0-.584-.25-.25-.25-.25-.583v-3.188q0-.333.25-.583.25-.25.584-.25h3.187q.333 0 .583.25.25.25.25.583v.771l.605-.312q.333-.209.677.01.344.219.344.615v1q0 .437-.344.625-.344.187-.677-.021l-.605-.292v.792q0 .333-.25.583-.25.25-.583.25Zm-8.73.834V8.5q0-.625.292-1.167.292-.541.771-.916L8.438 3q.729-.542 1.562-.542.833 0 1.562.542l4.563 3.417q.5.375.781.927.282.552.282 1.156v.396h-2.605v-.5L10 5.083 5.417 8.5v6.917h10.479q.5 0 .896.395.396.396.396.896 0 .521-.396.917t-.896.396H5.417q-1.084 0-1.844-.761-.761-.76-.761-1.843ZM10 10.25Z"/></svg>

<svg xmlns="http://www.w3.org/2000/svg" height="20" width="20"><path d="M11.542 14.583Q11.208 14.583 10.958 14.333Q10.708 14.083 10.708 13.75V10.562Q10.708 10.229 10.958 9.979Q11.208 9.729 11.542 9.729H14.729Q15.062 9.729 15.312 9.979Q15.562 10.229 15.562 10.562V11.333L16.167 11.021Q16.5 10.812 16.844 11.031Q17.188 11.25 17.188 11.646V12.646Q17.188 13.083 16.844 13.271Q16.5 13.458 16.167 13.25L15.562 12.958V13.75Q15.562 14.083 15.312 14.333Q15.062 14.583 14.729 14.583ZM2.812 15.417V8.5Q2.812 7.875 3.104 7.333Q3.396 6.792 3.875 6.417L8.438 3Q9.167 2.458 10 2.458Q10.833 2.458 11.562 3L16.125 6.417Q16.625 6.792 16.906 7.344Q17.188 7.896 17.188 8.5V8.896H14.583V8.396Q14.583 8.396 14.583 8.396Q14.583 8.396 14.583 8.396L10 5.083Q10 5.083 10 5.083Q10 5.083 10 5.083L5.417 8.5Q5.417 8.5 5.417 8.5Q5.417 8.5 5.417 8.5V15.417Q5.417 15.417 5.417 15.417Q5.417 15.417 5.417 15.417H15.896Q16.396 15.417 16.792 15.812Q17.188 16.208 17.188 16.708Q17.188 17.229 16.792 17.625Q16.396 18.021 15.896 18.021H5.417Q4.333 18.021 3.573 17.26Q2.812 16.5 2.812 15.417ZM10 10.25Q10 10.25 10 10.25Q10 10.25 10 10.25Q10 10.25 10 10.25Q10 10.25 10 10.25Z"/></svg>
